assets/img/templates/pieprogress/circle1.svg

<svg height="120" viewBox="0 0 105 120" width="105" xmlns="http://www.w3.org/2000/svg" xmlns:xlink="http://www.w3.org/1999/xlink"><defs><path id="a" d="m40.7967818 0c-22.3675751 0-40.5000785 18.1323918-40.5000785 40.4999215 0 22.3675524 18.1325261 40.5000785 40.5000785 40.5000785 22.3674233 0 40.4999215-18.132554 40.4999215-40.5000785 0-22.3675018-18.1324755-40.4999215-40.4999215-40.4999215zm.1557694 10.5923077c16.603512 0 30.0633829 13.4598294 30.0633829 30.0633829 0 16.6035906-13.4599081 30.0635402-30.0633829 30.0635402-16.6036114 0-30.0635402-13.4599288-30.0635402-30.0635402 0-16.6035742 13.4598916-30.0633829 30.0635402-30.0633829z"/><filter id="b" height="107.4%" width="107.4%" x="-3.7%" y="-3.7%"><feGaussianBlur in="SourceAlpha" result="shadowBlurInner1" stdDeviation="2"/><feOffset dx="0" dy="2" in="shadowBlurInner1" result="shadowOffsetInner1"/><feComposite in="shadowOffsetInner1" in2="SourceAlpha" k2="-1" k3="1" operator="arithmetic" result="shadowInnerInner1"/><feColorMatrix in="shadowInnerInner1" type="matrix" values="0 0 0 0 0.780392157   0 0 0 0 0.831372549   0 0 0 0 0.890196078  0 0 0 1 0"/></filter><linearGradient id="c" x1="40.624023%" x2="53.053897%" y1="-20.309903%" y2="110.226894%"><stop offset="0" stop-color="#efcfb4"/><stop offset="1" stop-color="#f88d24"/></linearGradient><path id="d" d="m40.7967033 2c20.7107398 0 37.5 17.0130791 37.5 37.999921 0 20.9868685-16.7892865 38.000079-37.5 38.000079s-37.5-17.0132105-37.5-38.000079c0-1.3991214 1.11928812-2.5333333 2.5-2.5333333 1.38071187 0 2.5 1.1342119 2.5 2.5333333 0 18.1886303 14.5507146 32.9334123 32.5 32.9334123s32.5-14.744782 32.5-32.9334123c0-18.1885966-14.5506815-32.93325433-32.5-32.93325433-1.3807119 0-2.5-1.13421197-2.5-2.53333334 0-1.39912136 1.1192881-2.53333333 2.5-2.53333333z"/><filter id="e" height="118.4%" width="118.7%" x="-9.3%" y="-6.6%"><feOffset dx="0" dy="2" in="SourceAlpha" result="shadowOffsetOuter1"/><feGaussianBlur in="shadowOffsetOuter1" result="shadowBlurOuter1" stdDeviation="2"/><feColorMatrix in="shadowBlurOuter1" type="matrix" values="0 0 0 0 1   0 0 0 0 0.551913515   0 0 0 0 0.0066882622  0 0 0 0.5 0"/></filter></defs><g fill="none" fill-rule="evenodd"><path d="m0 0h105v120h-105z" fill="#fff"/><path d="m0 0h105v120h-105z" fill="#fff"/><g transform="translate(12 11)"><g fill-rule="nonzero"><use fill="#eff4f8" xlink:href="#a"/><use fill="#000" filter="url(#b)" xlink:href="#a"/></g><use fill="#000" filter="url(#e)" xlink:href="#d"/><use fill="url(#c)" fill-rule="evenodd" xlink:href="#d"/><g fill-rule="nonzero"><path d="m28.5158814 46.8263193 4.9460113-11.1850367v-1.4589179h-9.1651894v2.1102205h6.3464948l-4.9460113 10.5337341zm10.9911362.1736807c.9572925 0 1.7653773-.1939434 2.4242546-.5818303.6588772-.3878869 1.1522965-.9031396 1.4802578-1.5457582.3279614-.6426186.491942-1.3460254.491942-2.1102205 0-.8915609-.1551168-1.6557559-.4653505-2.2925851s-.7608112-1.1231352-1.3517325-1.4589179c-.5909213-.3357826-1.3029814-.503674-2.1361805-.503674-.3781896 0-.7386516.0492096-1.0813859.1476286-.3427344.0984191-.6204674.2084169-.8331991.3299933l.3102337-2.6486306h5.1232877v-2.1536406h-7.3126511l-.7534247 6.4348698 2.1273167.512358c.2068225-.2084168.4358045-.3734135.686946-.49499.2511416-.1215764.5835348-.1823647.9971797-.1823647.6736503 0 1.1774107.1896014 1.5112812.5688043.3338706.3792028.5008058.9045869.5008058 1.5761523 0 .6889334-.1388665 1.2432643-.4165995 1.6629926-.277733.4197284-.7150147.6295926-1.3118453.6295926-.4963739 0-.8996776-.1432866-1.2099113-.4298598-.3102337-.2865731-.4889874-.6816967-.5362611-1.1853707h-2.6591459c.0118185.7526163.2260274 1.4111556.642627 1.9756179.4165995.5644623.9587698.9972167 1.6265108 1.2982632.6677411.3010465 1.3827559.4515698 2.1450444.4515698zm8.8195004-7.1209085c.5968305 0 1.1065001-.1157871 1.5290088-.3473614.4225088-.2315742.740129-.5441995.9528606-.9378757.2127317-.3936763.3190975-.8307727.3190975-1.3112893v-.6686706c0-.486306-.1078431-.9277444-.3235294-1.3243153-.2156863-.396571-.5347838-.7106436-.9572925-.9422178-.4225087-.2315743-.935133-.3473614-1.5378727-.3473614-.5909213 0-1.0991136.1157871-1.5245769.3473614-.4254634.2315742-.7475155.5456468-.9661564.9422178-.2186408.3965709-.3279613.8380093-.3279613 1.3243153v.6686706c0 .4805166.1093205.917613.3279613 1.3112893.2186409.3936762.5421703.7063015.9705883.9378757.4284179.2315743.9410421.3473614 1.5378727.3473614zm.5229653 6.000668 6.3021757-9.8824315-1.2941177-.6686707-6.3021756 9.8824315zm-.5229653-7.503006c-.3427344 0-.6071717-.1056557-.7933119-.3169673-.1861402-.2113115-.2792103-.4703852-.2792103-.7772211v-.6686706c0-.3126253.0915928-.576041.2747784-.7902472s.443191-.3213093.7800161-.3213093c.3427344 0 .6056944.1071031.78888.3213093s.2747784.4776219.2747784.7902472v.6686706c0 .3068359-.0901155.5659096-.2703465.7772211-.180231.2113116-.4387591.3169673-.7755842.3169673zm6.1603545 8.6232465c.5968305 0 1.1079775-.1157871 1.5334408-.3473614.4254633-.2315742.7445608-.5441995.9572925-.9378757.2127317-.3936763.3190975-.8336674.3190975-1.3199733v-.6686707c0-.4863059-.1078431-.926297-.3235294-1.3199733-.2156863-.3936762-.5362611-.7063015-.9617244-.9378757-.4254634-.2315743-.9395649-.3473614-1.5423046-.3473614-.5909213 0-1.0991136.1157871-1.524577.3473614-.4254633.2315742-.7475154.5456468-.9661563.9422177-.2186409.396571-.3279613.8351147-.3279613 1.3156313v.6686707c0 .4863059.1093204.926297.3279613 1.3199733.2186409.3936762.5421703.7063015.9705882.9378757.428418.2315743.9410422.3473614 1.5378727.3473614zm0-1.502338c-.3131883 0-.570239-.1085504-.7711523-.3256513-.2009132-.2171009-.3013698-.4761746-.3013698-.7772211v-.6686707c0-.3126252.0915928-.5745936.2747784-.7859051.1831856-.2113116.4431909-.3169673.7800161-.3169673.3427343 0 .6056943.1056557.7888799.3169673.1831856.2113115.2747784.4732799.2747784.7859051v.6686707c0 .3357827-.0768198.6035404-.2304593.8032732s-.4254633.2995992-.8154714.2995992z" fill="#304254"/><path d="m33.7883156 98.8756477v-.5595855h-.9100652v-6.0621762h1.526561v1.2124352h.8904939v-1.8238342h-5.998602v1.8238342h.8904939v-1.2124352h1.5265611v6.0621762h-.9100653v.5595855zm3.4641193-6.3937824c.2087605 0 .3718546-.0639033.4892824-.1917099.1174277-.1278065.1761416-.2918825.1761416-.4922279v-.0621762c0-.2003454-.0587139-.3644214-.1761416-.492228-.1174278-.1278065-.2805219-.1917098-.4892824-.1917098s-.3718546.0639033-.4892824.1917098c-.1174278.1278066-.1761417.2918826-.1761417.492228v.0621762c0 .2003454.0587139.3644214.1761417.4922279.1174278.1278066.2805219.1917099.4892824.1917099zm1.2134203 6.3937824v-.5595855h-.665424v-4.9533679l-1.7614166.3626943v.4559586l.665424.134715v4h-.665424v.5595855zm2.2996272.0829015c.2739982 0 .5333178-.0224525.777959-.0673575s.4224138-.0949914.5333178-.1502591v-.4559585h-1.2232059v-4.1968912h1.2232059v-.6010363h-1.2232059v-1.4404145h-.5675676l-.3033551.9119171c-.0587139.1727116-.1337372.3039724-.2250699.3937824s-.2576887.134715-.499068.134715h-.166356v.6010363h.665424v3.8341969c0 .3592401.0750233.6217617.2250699.7875648s.4109972.2487046.7828518.2487046zm4.2665424-.0829015v-.5595855h-.665424v-7.3160622l-1.7614166.3626943v.4559585l.665424.1347151v6.3626943h-.665424v.5595855zm3.0922647.1243523c.2935694 0 .55452-.0431779.7828518-.1295337s.4273066-.1986183.5969245-.3367875c.1696179-.1381693.3115098-.2936097.4256757-.4663213s.2006058-.3488774.2593197-.5284974l-.4207829-.26943c-.110904.2625215-.2821528.4818652-.5137465.658031-.2315936.1761658-.5365797.2642487-.914958.2642487-.4305685 0-.7730662-.1468048-1.0274931-.4404145-.2544268-.2936096-.3816402-.7098445-.3816402-1.2487046v-.3316062h3.3662628v-.2797928c0-.3799654-.0521901-.7253886-.1565704-1.0362694-.1043802-.3108808-.2527959-.5768567-.4452469-.7979275-.1924511-.2210708-.4256757-.3920552-.6996738-.5129533-.2739982-.1208981-.583877-.1813472-.9296366-.1813472-.3392358 0-.6507456.0673575-.9345293.2020725-.2837838.1347151-.528425.3246978-.7339236.5699482-.2054986.2452505-.3653309.5405872-.4794968.8860104-.1141658.3454231-.1712488.7322971-.1712488 1.1606218 0 .4214162.0538211.8048359.1614632 1.150259.1076421.3454232.2625815.6424871.4648183.8911917.2022367.2487047.4501398.4404145.7437092.5751296.2935694.134715.6295433.2020725 1.0079217.2020725zm1.0372787-3.3782383h-2.2311277v-.1347151c0-.4974093.0978565-.8791019.2935694-1.1450777.195713-.2659758.4762349-.3989637.8415657-.3989637.3718546 0 .6474837.1364421.8268872.4093264.1794036.2728843.2691054.6580311.2691054 1.1554404z" fill="#798999"/></g></g></g></svg>

<?xml version="1.0" encoding="UTF-8"?>
<svg width="105px" height="120px" viewBox="0 0 105 120" version="1.1" xmlns="http://www.w3.org/2000/svg" xmlns:xlink="http://www.w3.org/1999/xlink">
    <!-- Generator: Sketch 61.1 (89650) - https://sketch.com -->
    <title>circle1</title>
    <desc>Created with Sketch.</desc>
    <defs>
        <path d="M40.7967818,0 C18.4292067,0 0.296703297,18.1323918 0.296703297,40.4999215 C0.296703297,62.8674739 18.4292294,81 40.7967818,81 C63.1642051,81 81.2967033,62.867446 81.2967033,40.4999215 C81.2967033,18.1324197 63.1642278,0 40.7967818,0 Z M40.9525512,10.5923077 C57.5560632,10.5923077 71.0159341,24.0521371 71.0159341,40.6556906 C71.0159341,57.2592812 57.556026,70.7192308 40.9525512,70.7192308 C24.3489398,70.7192308 10.889011,57.259302 10.889011,40.6556906 C10.889011,24.0521164 24.3489026,10.5923077 40.9525512,10.5923077 Z" id="path-1"></path>
        <filter x="-3.7%" y="-3.7%" width="107.4%" height="107.4%" filterUnits="objectBoundingBox" id="filter-2">
            <feGaussianBlur stdDeviation="2" in="SourceAlpha" result="shadowBlurInner1"></feGaussianBlur>
            <feOffset dx="0" dy="2" in="shadowBlurInner1" result="shadowOffsetInner1"></feOffset>
            <feComposite in="shadowOffsetInner1" in2="SourceAlpha" operator="arithmetic" k2="-1" k3="1" result="shadowInnerInner1"></feComposite>
            <feColorMatrix values="0 0 0 0 0.780392157   0 0 0 0 0.831372549   0 0 0 0 0.890196078  0 0 0 1 0" type="matrix" in="shadowInnerInner1"></feColorMatrix>
        </filter>
        <linearGradient x1="40.624023%" y1="-20.3099034%" x2="53.053897%" y2="110.226894%" id="linearGradient-3">
            <stop stop-color="#EFCFB4" offset="0%"></stop>
            <stop stop-color="#F88D24" offset="100%"></stop>
        </linearGradient>
        <path d="M40.7967033,2 C61.5074431,2 78.2967033,19.0130791 78.2967033,39.999921 C78.2967033,60.9867895 61.5074168,78 40.7967033,78 C20.0859898,78 3.2967033,60.9867895 3.2967033,39.999921 C3.2967033,38.6007996 4.41599142,37.4665877 5.7967033,37.4665877 C7.17741517,37.4665877 8.2967033,38.6007996 8.2967033,39.999921 C8.2967033,58.1885513 22.8474179,72.9333333 40.7967033,72.9333333 C58.7459887,72.9333333 73.2967033,58.1885513 73.2967033,39.999921 C73.2967033,21.8113244 58.7460218,7.06666667 40.7967033,7.06666667 C39.4159914,7.06666667 38.2967033,5.9324547 38.2967033,4.53333333 C38.2967033,3.13421197 39.4159914,2 40.7967033,2 Z" id="path-4"></path>
        <filter x="-9.3%" y="-6.6%" width="118.7%" height="118.4%" filterUnits="objectBoundingBox" id="filter-5">
            <feOffset dx="0" dy="2" in="SourceAlpha" result="shadowOffsetOuter1"></feOffset>
            <feGaussianBlur stdDeviation="2" in="shadowOffsetOuter1" result="shadowBlurOuter1"></feGaussianBlur>
            <feColorMatrix values="0 0 0 0 1   0 0 0 0 0.551913515   0 0 0 0 0.0066882622  0 0 0 0.5 0" type="matrix" in="shadowBlurOuter1"></feColorMatrix>
        </filter>
    </defs>
    <g id="circle1" stroke="none" stroke-width="1" fill="none" fill-rule="evenodd">
        <rect fill="#FFFFFF" x="0" y="0" width="105" height="120"></rect>
        <rect id="Rectangle" fill="#FFFFFF" x="0" y="0" width="105" height="120"></rect>
        <g id="Group-21" transform="translate(12.000000, 11.000000)">
            <g id="Stroke-1" fill-rule="nonzero">
                <use fill="#EFF4F8" xlink:href="#path-1"></use>
                <use fill="black" fill-opacity="1" filter="url(#filter-2)" xlink:href="#path-1"></use>
            </g>
            <g id="Stroke-3">
                <use fill="black" fill-opacity="1" filter="url(#filter-5)" xlink:href="#path-4"></use>
                <use fill="url(#linearGradient-3)" fill-rule="evenodd" xlink:href="#path-4"></use>
            </g>
            <path d="M28.5158814,46.8263193 L33.4618927,35.6412826 L33.4618927,34.1823647 L24.2967033,34.1823647 L24.2967033,36.2925852 L30.6431981,36.2925852 L25.6971868,46.8263193 L28.5158814,46.8263193 Z M39.5070176,47 C40.4643101,47 41.2723949,46.8060566 41.9312722,46.4181697 C42.5901494,46.0302828 43.0835687,45.5150301 43.41153,44.8724115 C43.7394914,44.2297929 43.903472,43.5263861 43.903472,42.762191 C43.903472,41.8706301 43.7483552,41.1064351 43.4381215,40.4696059 C43.1278878,39.8327767 42.6773103,39.3464707 42.086389,39.010688 C41.4954677,38.6749054 40.7834076,38.507014 39.9502085,38.507014 C39.5720189,38.507014 39.2115569,38.5562236 38.8688226,38.6546426 C38.5260882,38.7530617 38.2483552,38.8630595 38.0356235,38.9846359 L38.0356235,38.9846359 L38.3458572,36.3360053 L43.4691449,36.3360053 L43.4691449,34.1823647 L36.1564938,34.1823647 L35.4030691,40.6172345 L37.5303858,41.1295925 C37.7372083,40.9211757 37.9661903,40.756179 38.2173318,40.6346025 C38.4684734,40.5130261 38.8008666,40.4522378 39.2145115,40.4522378 C39.8881618,40.4522378 40.3919222,40.6418392 40.7257927,41.0210421 C41.0596633,41.4002449 41.2265985,41.925629 41.2265985,42.5971944 C41.2265985,43.2861278 41.087732,43.8404587 40.809999,44.260187 C40.532266,44.6799154 40.0949843,44.8897796 39.4981537,44.8897796 C39.0017798,44.8897796 38.5984761,44.746493 38.2882424,44.4599198 C37.9780087,44.1733467 37.799255,43.7782231 37.7519813,43.2745491 L37.7519813,43.2745491 L35.0928354,43.2745491 C35.1046539,44.0271654 35.3188628,44.6857047 35.7354624,45.250167 C36.1520619,45.8146293 36.6942322,46.2473837 37.3619732,46.5484302 C38.0297143,46.8494767 38.7447291,47 39.5070176,47 Z M48.326518,39.8790915 C48.9233485,39.8790915 49.4330181,39.7633044 49.8555268,39.5317301 C50.2780356,39.3001559 50.5956558,38.9875306 50.8083874,38.5938544 C51.0211191,38.2001781 51.1274849,37.7630817 51.1274849,37.2825651 L51.1274849,37.2825651 L51.1274849,36.6138945 C51.1274849,36.1275885 51.0196418,35.6861501 50.8039555,35.2895792 C50.5882692,34.8930082 50.2691717,34.5789356 49.846663,34.3473614 C49.4241543,34.1157871 48.91153,34 48.3087903,34 C47.717869,34 47.2096767,34.1157871 46.7842134,34.3473614 C46.35875,34.5789356 46.0366979,34.8930082 45.818057,35.2895792 C45.5994162,35.6861501 45.4900957,36.1275885 45.4900957,36.6138945 L45.4900957,36.6138945 L45.4900957,37.2825651 C45.4900957,37.7630817 45.5994162,38.2001781 45.818057,38.5938544 C46.0366979,38.9875306 46.3602273,39.3001559 46.7886453,39.5317301 C47.2170632,39.7633044 47.7296874,39.8790915 48.326518,39.8790915 Z M48.8494833,45.8797595 L55.151659,35.997328 L53.8575413,35.3286573 L47.5553657,45.2110888 L48.8494833,45.8797595 Z M48.326518,38.3767535 C47.9837836,38.3767535 47.7193463,38.2710978 47.5332061,38.0597862 C47.3470659,37.8484747 47.2539958,37.589401 47.2539958,37.2825651 L47.2539958,37.2825651 L47.2539958,36.6138945 C47.2539958,36.3012692 47.3455886,36.0378535 47.5287742,35.8236473 C47.7119598,35.6094411 47.9719652,35.502338 48.3087903,35.502338 C48.6515247,35.502338 48.9144847,35.6094411 49.0976703,35.8236473 C49.2808559,36.0378535 49.3724487,36.3012692 49.3724487,36.6138945 L49.3724487,36.6138945 L49.3724487,37.2825651 C49.3724487,37.589401 49.2823332,37.8484747 49.1021022,38.0597862 C48.9218712,38.2710978 48.6633431,38.3767535 48.326518,38.3767535 Z M54.4868725,47 C55.083703,47 55.59485,46.8842129 56.0203133,46.6526386 C56.4457766,46.4210644 56.7648741,46.1084391 56.9776058,45.7147629 C57.1903375,45.3210866 57.2967033,44.8810955 57.2967033,44.3947896 L57.2967033,44.3947896 L57.2967033,43.7261189 C57.2967033,43.239813 57.1888602,42.7998219 56.9731739,42.4061456 C56.7574876,42.0124694 56.4369128,41.6998441 56.0114495,41.4682699 C55.5859861,41.2366956 55.0718846,41.1209085 54.4691449,41.1209085 C53.8782236,41.1209085 53.3700313,41.2366956 52.9445679,41.4682699 C52.5191046,41.6998441 52.1970525,42.0139167 51.9784116,42.4104876 C51.7597707,42.8070586 51.6504503,43.2456023 51.6504503,43.7261189 L51.6504503,43.7261189 L51.6504503,44.3947896 C51.6504503,44.8810955 51.7597707,45.3210866 51.9784116,45.7147629 C52.1970525,46.1084391 52.5205819,46.4210644 52.9489998,46.6526386 C53.3774178,46.8842129 53.890042,47 54.4868725,47 Z M54.4868725,45.497662 C54.1736842,45.497662 53.9166335,45.3891116 53.7157202,45.1720107 C53.514807,44.9549098 53.4143504,44.6958361 53.4143504,44.3947896 L53.4143504,44.3947896 L53.4143504,43.7261189 C53.4143504,43.4134937 53.5059432,43.1515253 53.6891288,42.9402138 C53.8723144,42.7289022 54.1323197,42.6232465 54.4691449,42.6232465 C54.8118792,42.6232465 55.0748392,42.7289022 55.2580248,42.9402138 C55.4412104,43.1515253 55.5328032,43.4134937 55.5328032,43.7261189 L55.5328032,43.7261189 L55.5328032,44.3947896 C55.5328032,44.7305723 55.4559834,44.99833 55.3023439,45.1980628 C55.1487044,45.3977956 54.8768806,45.497662 54.4868725,45.497662 Z" id="75%" fill="#304254" fill-rule="nonzero"></path>
            <path d="M33.7883156,98.8756477 L33.7883156,98.3160622 L32.8782504,98.3160622 L32.8782504,92.253886 L34.4048114,92.253886 L34.4048114,93.4663212 L35.2953053,93.4663212 L35.2953053,91.642487 L29.2967033,91.642487 L29.2967033,93.4663212 L30.1871972,93.4663212 L30.1871972,92.253886 L31.7137583,92.253886 L31.7137583,98.3160622 L30.803693,98.3160622 L30.803693,98.8756477 L33.7883156,98.8756477 Z M37.2524349,92.4818653 C37.4611954,92.4818653 37.6242895,92.417962 37.7417173,92.2901554 C37.859145,92.1623489 37.9178589,91.9982729 37.9178589,91.7979275 L37.9178589,91.7979275 L37.9178589,91.7357513 C37.9178589,91.5354059 37.859145,91.3713299 37.7417173,91.2435233 C37.6242895,91.1157168 37.4611954,91.0518135 37.2524349,91.0518135 C37.0436744,91.0518135 36.8805803,91.1157168 36.7631525,91.2435233 C36.6457247,91.3713299 36.5870108,91.5354059 36.5870108,91.7357513 L36.5870108,91.7357513 L36.5870108,91.7979275 C36.5870108,91.9982729 36.6457247,92.1623489 36.7631525,92.2901554 C36.8805803,92.417962 37.0436744,92.4818653 37.2524349,92.4818653 Z M38.4658552,98.8756477 L38.4658552,98.3160622 L37.8004312,98.3160622 L37.8004312,93.3626943 L36.0390146,93.7253886 L36.0390146,94.1813472 L36.7044386,94.3160622 L36.7044386,98.3160622 L36.0390146,98.3160622 L36.0390146,98.8756477 L38.4658552,98.8756477 Z M40.7654824,98.9585492 C41.0394806,98.9585492 41.2988002,98.9360967 41.5434414,98.8911917 C41.7880826,98.8462867 41.9658552,98.7962003 42.0767592,98.7409326 L42.0767592,98.7409326 L42.0767592,98.2849741 L40.8535533,98.2849741 L40.8535533,94.0880829 L42.0767592,94.0880829 L42.0767592,93.4870466 L40.8535533,93.4870466 L40.8535533,92.0466321 L40.2859857,92.0466321 L39.9826306,92.9585492 C39.9239167,93.1312608 39.8488934,93.2625216 39.7575607,93.3523316 C39.666228,93.4421416 39.499872,93.4870466 39.2584927,93.4870466 L39.2584927,93.4870466 L39.0921367,93.4870466 L39.0921367,94.0880829 L39.7575607,94.0880829 L39.7575607,97.9222798 C39.7575607,98.2815199 39.832584,98.5440415 39.9826306,98.7098446 C40.1326772,98.8756477 40.3936278,98.9585492 40.7654824,98.9585492 Z M45.0320248,98.8756477 L45.0320248,98.3160622 L44.3666008,98.3160622 L44.3666008,91 L42.6051842,91.3626943 L42.6051842,91.8186528 L43.2706082,91.9533679 L43.2706082,98.3160622 L42.6051842,98.3160622 L42.6051842,98.8756477 L45.0320248,98.8756477 Z M48.1242895,99 C48.4178589,99 48.6788095,98.9568221 48.9071413,98.8704663 C49.1354731,98.7841105 49.3344479,98.671848 49.5040658,98.5336788 C49.6736837,98.3955095 49.8155756,98.2400691 49.9297415,98.0673575 C50.0439074,97.8946459 50.1303473,97.7184801 50.1890612,97.5388601 L50.1890612,97.5388601 L49.7682783,97.2694301 C49.6573743,97.5319516 49.4861255,97.7512953 49.2545318,97.9274611 C49.0229382,98.1036269 48.7179521,98.1917098 48.3395738,98.1917098 C47.9090053,98.1917098 47.5665076,98.044905 47.3120807,97.7512953 C47.0576539,97.4576857 46.9304405,97.0414508 46.9304405,96.5025907 L46.9304405,96.5025907 L46.9304405,96.1709845 L50.2967033,96.1709845 L50.2967033,95.8911917 C50.2967033,95.5112263 50.2445132,95.1658031 50.1401329,94.8549223 C50.0357527,94.5440415 49.887337,94.2780656 49.694886,94.0569948 C49.5024349,93.835924 49.2692103,93.6649396 48.9952122,93.5440415 C48.721214,93.4231434 48.4113352,93.3626943 48.0655756,93.3626943 C47.7263398,93.3626943 47.41483,93.4300518 47.1310463,93.5647668 C46.8472625,93.6994819 46.6026213,93.8894646 46.3971227,94.134715 C46.1916241,94.3799655 46.0317918,94.6753022 45.9176259,95.0207254 C45.8034601,95.3661485 45.7463771,95.7530225 45.7463771,96.1813472 C45.7463771,96.6027634 45.8001982,96.9861831 45.9078403,97.3316062 C46.0154824,97.6770294 46.1704218,97.9740933 46.3726586,98.2227979 C46.5748953,98.4715026 46.8227984,98.6632124 47.1163678,98.7979275 C47.4099372,98.9326425 47.7459111,99 48.1242895,99 Z M49.1615682,95.6217617 L46.9304405,95.6217617 L46.9304405,95.4870466 C46.9304405,94.9896373 47.028297,94.6079447 47.2240099,94.3419689 C47.4197229,94.0759931 47.7002448,93.9430052 48.0655756,93.9430052 C48.4374302,93.9430052 48.7130593,94.0794473 48.8924628,94.3523316 C49.0718664,94.6252159 49.1615682,95.0103627 49.1615682,95.507772 L49.1615682,95.507772 L49.1615682,95.6217617 Z" id="Title" fill="#798999" fill-rule="nonzero"></path>
        </g>
    </g>
</svg>
